X:1
T:View me, Lord
T:Charles Wood (Founded on a 15th Century Bohemian melody)
T:Thomas Campion
T:Copyright © 2006 by the Choral Public Domain Library (http://www.cpdl.org) Edition may be freely distributed, duplicated, performed, or recorded. Please send comments, amendments, suggestions and corrections to robertnottingham6@hotmail.com
T:View me, Lord
T:Copyright © 2006 by the Choral Public Domain Library (http://www.cpdl.org) Edition may be freely distributed, duplicated, performed, or recorded. Please send comments, amendments, suggestions and corrections to robertnottingham6@hotmail.com
T:Copyright © 2006 by the Choral Public Domain Library (http://www.cpdl.org) Edition may be freely distributed, duplicated, performed, or recorded. Please send comments, amendments, suggestions and corrections to robertnottingham6@hotmail.com
T:Copyright © 2006 by the Choral Public Domain Library (http://www.cpdl.org) Edition may be freely distributed, duplicated, performed, or recorded. Please send comments, amendments, suggestions and corrections to robertnottingham6@hotmail.com
T:Copyright © 2006 by the Choral Public Domain Library (http://www.cpdl.org) Edition may be freely distributed, duplicated, performed, or recorded. Please send comments, amendments, suggestions and corrections to robertnottingham6@hotmail.com
T:Copyright © 2006 by the Choral Public Domain Library (http://www.cpdl.org) Edition may be freely distributed, duplicated, performed, or recorded. Please send comments, amendments, suggestions and corrections to robertnottingham6@hotmail.com
T:Copyright © 2006 by the Choral Public Domain Library (http://www.cpdl.org) Edition may be freely distributed, duplicated, performed, or recorded. Please send comments, amendments, suggestions and corrections to robertnottingham6@hotmail.com
T:Copyright © 2006 by the Choral Public Domain Library (http://www.cpdl.org) Edition may be freely distributed, duplicated, performed, or recorded. Please send comments, amendments, suggestions and corrections to robertnottingham6@hotmail.com
C:Charles Wood
C:(Founded on a 15th Century Bohemian melody)
Z:Thomas Campion
Z:Copyright © 2006 by the Choral Public Domain Library (http://www.cpdl.org)
Z:Edition may be freely distributed, duplicated, performed, or recorded.
Z:Please send comments, amendments, suggestions and corrections to robertnottingham6@hotmail.com
%%score [ 1 2 3 ] { ( 4 7 ) | ( 5 6 8 ) }
L:1/8
Q:1/4=60
M:4/4
K:Eb
V:1 treble nm="ALTO" snm="A."
V:2 treble-8 transpose=-12 nm="TENOR" snm="T."
V:3 bass nm="BASS" snm="B."
V:4 bass nm="Organ" snm="Org."
V:7 bass 
V:5 bass 
V:6 bass 
V:8 bass 
V:1
"^Adagio" z8 | z8 | z8 |!p! C4 D4 | E2 D2 C2 B,2 | C8 | E2 F2 G2 G2 | (A2 G2 A2) F2 | G6 z2 | z8 | %10
w: |||View me,|Lord, a work of|Thine:|Shall I then lie|drown’d _ _ in|night?||
!p!!<(! G4!<)! c4 |!mf! B2 G2 B2 G2 |!>(! F8!>)! |!p! E2 F2 G2 C2 | (E4 F2) D2 | C6 z2 | z8 | z8 | %18
w: Might Thy|grace in me but|shine,|I should seem made|all _ of|light.|||
 z8 | z8 | z8 | z8 | z8 | z8 | z8 | z8 | z8 | z8 | z8 | z8 | z8 | z8 | z8 | z8 | %34
w: ||||||||||||||||
!p!"^sempre" B,4 (C2 D2) | E2 D2 E2 C2 | D4 z4 | E2 F2 G2 G2 | (G2 ^F2 G2) =E2 | ^F2 z2 z4 | %40
w: World- ly _|joys, like sha- dows,|fade|When the heav’n- ly|light _ _ ap-|pears;|
!<(! =F4!<)! B4 |!>(! =A2 F2 A2!>)! F2 | D2 z2 D2 D2 | G2 D2 ^F3 F | G6 z2 | z8 | %46
w: But the|cov- ’nants Thou hast|made, End- less,|know nor days nor|years.||
!f!"^marc." C4 D4 | E2 D2 C2 B,2 | C8 | E2 F2 G2 G2 | (A2 G2 A2) F2 | G6 z2 | G4 c4 | B2 G2 B2 G2 | %54
w: In Thy|Word, Lord, is my|trust,|To Thy mer- cies|fast _ _ I|fly;|Though I|am but clay and|
 F8 |!<(! E2 F2 G2!<)! C2 |!ff! (E4 F2) D2 | C6 z2 |"^rit." F8 | !fermata!G8 |] %60
w: dust,|Yet Thy grace can|lift _ me|high.|A-|men.|
V:2
 z8 | z8 | z8 |!p! E4 F4 | G2 A2 G3 G | A8 | B2 B2 B2 e2 | c6 c2 | =B6 z2 | z8 | %10
w: |||View me,|Lord, a work of|Thine:|Shall I then lie|drown’d in|night?||
 z2!p!!<(! e4 f2!<)! |!mf! d2 e2 B2 B2 |!>(! (c4!>)! d4) |!p! e2 c2 B2 A2 | (B2 c4) =B2 | c6 z2 | %16
w: Might Thy|grace in me but|shine, _|I should seem made|all _ of|light.|
 z8 | z8 | z8 | z8 | z8 | z8 | z8 | z8 | z8 | z8 | z8 | z8 | z8 | z8 | z8 | z8 | z8 | %33
w: |||||||||||||||||
!mf!"^con espress." G4 =A4 | B2 =A2 G2 F2 | G8 | B2 c2 d2 d2 | (e2 d2 e2) c2 | d8 |!<(! d4!<)! g4 | %40
w: World- ly|joys, like sha- dows,|fade|When the heav’n- ly|light _ _ ap-|pears;|But the|
 f2 d2 f2 d2 |!>(! c8!>)! | B2 c2 d2 G2 | (B4 c2) =A2 | G6 z2 | z8 |!f!"^marc." c4 d4 | %47
w: cov- ’nants Thou hast|made,|End- less, know nor|days _ nor|years.||In Thy|
 e2 d2 c2 B2 |"^div." c8 | [Ee]2 [Ff]2 [Gg]2 [Gg]2 | ([Aa]2 [Gg]2 [Aa]2) [Ff]2 | [Gg]6"^unis." z2 | %52
w: Word, Lord, is my|trust,|To Thy mer- cies|fast _ _ I|fly;|
 G4 c4 | B2 G2 B2 G2 | F8 |!<(! e2 f2 g2!<)! c2 |!ff! (e4 f2) d2 | c6 z2 | (f4 c4) | %59
w: Though I|am but clay and|dust,|Yet Thy grace can|lift _ me|high.|A- *|
 !fermata!=e8 |] %60
w: men.|
V:3
 z8 | z8 | z8 |!p! C,4 B,,4 | E,2 F,2 E,3 E, | (A,4 G,2 F,2) | G,2 D,2 E,2 C,2 | %7
w: |||View me,|Lord, a work of|Thine: _ _|Shall I then lie|
 (F,2 E,2 F,2) A,2 | G,6 z2 | z8 | z2!p!!<(! C4!<)!!mf! A,2 | B,2 E,2 D,2 E,2 | %12
w: drown’d _ _ in|night?||Might Thy|grace in me but|
!>(! (A,4!>)!!p! B,4) | C2 A,2 E,2 F,2 | (G,2 A,2 F,2) G,2 | C,6 z2 | z8 |"^dolce" z8 | %18
w: shine, _|I should seem made|all _ _ of|light.|||
!p! C,4 D,4 | E,2 D,2 C,2 B,,2 | C,8 |!<(! E,2 F,2 G,2!<)! G,2 | (A,2!>(! G,2 A,2) F,2!>)! | G,8- | %24
w: Cleanse me,|Lord, that I may|kneel|At Thine al- tar,|pure _ _ and|white:|
 G,2 z2 z4 |!<(! G,4 C4 | B,2!<)! G,2!>(! B,2 G,2!>)! | F,8 | E,2 F,2 G,2 C,2 | (E,4 F,2) D,2 | %30
w: _|They that|once Thy mer- cies|feel,|Gaze no more on|earth’s _ de-|
 C,6 z2 | z8 | z8 | z4!p!"^sempre" (C,4 | D,4) (E,2 D,2) | C,2 B,,2 C,2 E,2 | G,4 D,2 ^F,2 | %37
w: light.|||World-|* ly _|joys, like sha- dows,|fade When the|
 G,2 G,2 G,2 E,2 | (D,4 =E,2) G,2 | D,2 z2!<(! B,4 | D4!<)! D2!>(! B,2 | F,2 =A,2!>)! F,4 | %42
w: heav’n- ly light ap-|pears, _ ap-|pears; But|the cov- ’nants|Thou hast made,|
 z4 B,,2 C,2 | D,3 D, D,2 D,2 | G,,6 z2 | z8 |!f!"^marc." C,4 D,4 | E,2 D,2 C,2 B,,2 | C,8 | %49
w: End- less,|know nor days nor|years.||In Thy|Word, Lord, is my|trust,|
 E,2 F,2 G,2 G,2 | (A,2 G,2 A,2) F,2 | G,6 z2 | G,4 C4 | B,2 G,2 B,2 G,2 | F,8 | %55
w: To Thy mer- cies|fast _ _ I|fly;|Though I|am but clay and|dust,|
!<(! E,2 F,2 G,2!<)! C,2 |!ff! (E,4 F,2) D,2 | C,6 z2 | (F,4 =A,4) | !fermata!C8 |] %60
w: Yet Thy grace can|lift _ me|high.|A- *|men.|
V:4
"^Adagio" z8 | C8- | C8- | C2 z2 z4 | z8 | z8 | z8 | z8 | z8 | G8- | G2 z2 z4 | z8 | z8 | z8 | z8 | %15
 z8 |!<(! z2 (c2 B2 cB!<)! |!>(! [CA]2 [B,G]2 [CA]2!>)! [DB]2 |!p! G2) (G2 F2 GF | E2 F2 G4 | %20
 E4) [Ee]4- |!<(! [Ee]2 (e2 d2!<)! ed |!>(! [Ac]2 [GB]2 [A-c]2!>)! [Ad]2 | B2) (g2 f2 gf | %24
 e2) (d2 e2 fe | d2) (B2 =A2 BA |!<(! G6!<)!!>(! E2- | c2)!>)! (=B2 c2 dc | %28
 [eg]2) ([df]2 [ce]2 [df][ce]) | ([=Ac]2 [=Bd][Ac] [GB]4) | [Gc-]8 |!<(! c2 c2!<)!!>(! B2 cB!>)! | %32
 =A2 z2 z4 |"^Sw.""^sempre" ([Bg]4!p! [=A=f]4 | d4 c2 B2 | G8 | [db]4 [c=a]4 | [=Bg]4 g2 c2 | d8 | %39
 [^fd']4 [db]4) | ([db]4 [Bf]4) | ([=Af]4 [Ac]4) | (g4 d2 c2 | [GB]4) [^F=A]4 | %44
 G3"^Full Sw." (G!<(! [Gg]4-) | [Gg]3 (G!<)! [fg]4) |!f! [Cc]4 [Dd]4 | [Ee]2 [Dd]2 [Cc]2 [B,B]2 | %48
 [Cc]8 | [Ee]2 [Ff]2 [Gg]2 [Gg]2 | [Aa]2 [Gg]2 [Aa]2 [Ff]2 | [Gg]8 | [Gg]4 [cc']4 | %53
 [Bb]2 [Gg]2 [Bb]2 [Gg]2 | [Ff]8 |"^Instrument change" [Ee]2 [Ff]2 [Gg]2 [Cc]2 | %56
!ff!"^Instrument change" [Ee]4 [Ff]2 [Dd]2"^Instrument change" | %57
"^Instrument change" [Cc]8"^Instrument change" |"^Instrument change" [F=Ac]8 | %59
"^Instrument change" !fermata![=EGc]8 |] %60
V:5
"^Ped."!p!"^Sw." C,8- | C,8- | C,2 B,,2 C,2 D,2 | E,2 z2 z4 | z8 | z8 | z8 | z8 |!p! G,8- | %9
 G,2 =A,4 =B,2 | C2 z2 z4 | z8 | z8 | z8 | z8 |!p! C,8- | C,8- | C,4- [C,F,]4 | G,4 A,4 | %19
 G,2 F,2 E,4- | E,2 B,2 A,2 C2 | B,2 [F,A,]2 [G,B,]2 [E,G,]2 | [A,C]2 [G,B,]2 [A,C]2 [F,A,]2 | %23
 [G,B,]4 [G,-=B,]4 | [G,-C]2 [G,-D]2 [G,-C]4 | [G,D]2 D,2- [D,-C]4 | [D,B,]4 [E,G,]4 | %27
 [F,A,]6 [D,F,]2 | [E,C]2 [F,D]2 [G,E]2 [F,D][G,E] | [=A,E]4 [D,D-]2 [F,D]2 | [E,C]8 | D4 ^C4 | %32
 [D,D]2 =C2 B,2 =A,2 |"^Ch." z .B,,.D,.G, .=A,.C,.E,.A, | .B,.D,.F,.=A, .G,.E,.D,.F, | %35
"^sempre stacc.""^sempre stacc." E,C,B,,D, C,E,G,=A, | B,D,G,B, CD,=A,C | =B,E,G,B, CE,G,C | %38
 =A,D,^F,A, B,=E,G,B, | D^F,=A,D B,D,G,B, | D=F,B,D B,D,F,B, | CF,=A,C FA,CF | z D, G,B, DD,E,G, | %43
 B,D,G,B, CD,=A,C | B,2 [G,-B,D]2 [G,-=B,E]2 [G,B,D]2- | %45
 [G,-B,D]2 [G,C]G,- [G,-=A,CF-]2 [G,=B,DF]2 |"^Gt. & Sw." z2 [E,G,]2 [F,A,]4 | %47
 [E,G,]2 [F,A,]2 [D,-F,]2 [D,A,]2 | [E,G,]4 [D,F,]4 | [G,C-]2 [A,C]2 [G,-=B,D]2 [G,CE]2 | %50
 [A,CF-]2 [G,=B,F]2 [A,CE]4 | [G,B,E-]4 [=A,CE]4 | [=B,D]4 [G,CE]4 | [_B,D]4 [B,-_D]2 [B,C]2 | %54
 [A,-C]4 [A,B,D]4 | %55
"^SOURCE: The Year Book Press Series of Anthems and Church Music edition copyright 1938COMPOSER: Charles Wood  (1866-1926), founded on a 15th century Bohemian melody.LYRICIST: Thomas Campion (1567-1620)transcribed from Year Book Press edition by Robert G. Nottingham 25/03/06minor revision 09/07/06ORIGINAL TEXT:Two Bookes of Ayres: The First Booke V. (1613?)by Thomas CampionView mee, Lord, a worke of thine :Shall I then lye drown’d in night?Might thy grace in mee but shine,I should seeme made all of light.But my soule still surfets soOn the poysoned baytes of sinne,That I strange and vgly growe,All is darke and foule within.Clense mee, Lord, that I may kneeleAt thine Altar, pure and white :They that once thy Mercies feele,Gaze no more on earths delight.Worldly ioyes like shadowes fade,When the heau’nly light appeares ;But the cou’nants thou hast made,Endlesse, know nor dayes, nor yeares.In thy word, Lord, is my trust,To thy mercies fast I flye ;Though I am but clay and dust,Yet thy grace can lift me high.Source:Campion, Thomas. Campion's Works. Percival Vivian, Ed. Oxford: Clarendon Press, 1909. 119."!<(! B,2- [A,B,D]2 [G,B,E]2!<)! A,2 | %56
 [C,F,-=A,C-]4 [D,F,_A,C]2"^MODERNISED TEXT:View me, Lord, a work of Thine:Shall I then lie drown’d in night?Might Thy grace in me but shine,I should seem made all of light.Cleanse me, Lord, that I may kneelAt Thine altar pure and white:They that once Thy mercies feel,Gaze no more on earth’s delight.Worldly joys, like shadows, fadeWhen the heav’nly light appears,But the cov’nants Thou hast made,Endless, know nor days nor years.In Thy Word, Lord, is my trust,To Thy mercies fast I fly;Though I am but clay and dust,Yet Thy grace can lift me high. Amen." [F,G,=B,]2 | %57
 [E,G,]4 [C,=E,A,]4 | [F,=A,]4- [F,A,]4 | [=E,G,C]8 |] %60
V:6
 C,4 B,,4 | A,,4 G,,4 | F,,8 | C,,2 x6 | x8 | x8 | x8 | x8 | G,4 F,4 | E,4 D,4 | C,2 x6 | x8 | x8 | %13
 x8 | x8 | C,4 B,,4 | A,,4 G,,4 | F,,8 | C,8- | C,4 C,2 B,,2 | A,,2 G,,2 F,,2 F,2 | B,,8- | B,,8- | %23
 B,,2 E,2 D,2 E,D, | C,2 =B,,2 C,2 =A,,2 | B,,2 G,,2 ^F,,2 D,,2 | G,,4 E,,4 | A,,8 | G,,8- | G,,8 | %30
 C,,2 C,2 B,,2 C,B,, | D,8- | ^F,,2 z2 z4 | .G,,2 .G,,2 z2 .G,,2 | .G,,2 .G,,2 z2 .G,,2 | %35
 G,,2 G,,2 z2 G,,2 | G,,2 G,,2 z2 G,,2 | G,,2 G,,2 z2 E,,2 | D,,2 D,,2 z2 D,,2 | D,2 D,2 z2 D,2 | %40
 D,2 D,2 z2 B,,2 | F,2 F,2 z2 F,,2 | B,,2 B,,2 z2 C,2 | D,2 D,2 z2 D,,2 | G,,4 F,4 | E,4 D,4 | %46
 C,3 B,, A,,3 F,, | C,3 B,, A,,3 F,, | C,3 B,, A,,3 F,, | C,3 A,, G,,3 E,, | F,3 D, C,3 A,, | %51
 E,3 D, C,3 G, | G,3 F, E,3 C, | G,3 F, =E,3 C, | F,3 E, D,3 B,, | G,3 F, E,3 A,, | %56
 F,,3 E,, D,,2 G,,2 | C,3 B,, A,,3 G,, | C,3 D, _E,4 | [C,,C,]8 |] %60
V:7
 x8 | (C4 B,4 | A,2 G,2 A,2 [F,B,]2 | G,2) x6 | x8 | x8 | x8 | x8 | x8 | (G4 F4 | E2) x6 | x8 | %12
 x8 | x8 | x8 | C8- | C8- | x8 | E4 D4 | C2 D2 E2 _D2 | C4 A2 BA | G2 [FA]2 [GB]2 [EG]2 | E6 F2 | %23
 G2 G6- | G2 G6- | G2 D6- | D2 D2 _D2 ED | [CE]2 E2 =D4 | x8 | x8 | x8 | ^F4 =E4 | =A2 x6 | x8 | %34
 G2 F2 E2 D2 | C2 B,2 C2 E2 | x8 | x4 G4- | G2 ^F2 G2 =E2 | x8 | x8 | x8 | B4 G4 | x8 | %44
 x4 [=Be]2 [Bd]2- | [Bd]2 cG [=Ac]2 [=Bd]2 | x2 [EG]2 x2 [FA]2 | E[Gc] D[FA] C[FA] B,[DA] | %48
 x2 [EG]2 x2 [FA]2 | E[Gc] F[Ac] G[=Bd] G[ce] | A[cf] G[=Bf] A[ce] F[ce] | x2 [Be]2 x2 [ce]2 | %52
 x2 [=Bd]2 x2 [eg]2 | B[dg] G[Bd] B[_dg] G[c=e] | x2 [Ac]2 x2 [AB]2 | E[GB] F[Ad] G[Be] C[EA] | %56
 x2 [=Ac]2 F[_Ac] D[F=B] | x2 [EG]2 x2 [=EA]2 | C3"^Instrument change" D E4 | x8 |] %60
V:8
 x8 | x8 | x8 | x8 | x8 | x8 | x8 | x8 | x8 | x8 | x8 | x8 | x8 | x8 | x8 | x8 | x8 | x8 | %18
 C,,2 z2 z4 | z4 E,,4 | x8 | x8 | x8 | x8 | x8 | x8 | x8 | x8 | x8 | x8 | x8 | =A,,4 G,,4 | x8 | %33
 x8 | x8 | x8 | x8 | x8 | x8 | x8 | x8 | x8 | x8 | x8 | x8 | x8 | x8 | x8 | x8 | x8 | x8 | x8 | %52
 x8 | x8 | x8 | x8 | x8 | x8 | F,,8 | x8 |] %60

